Origami/24x24/apps/tiled.svg

<svg width="24" height="24" version="1" xmlns="http://www.w3.org/2000/svg">
 <rect x="2" y="2.5" width="20" height="20" rx="1" ry="1" style="opacity:.2"/>
 <rect x="2" y="2" width="20" height="20" rx="1" ry="1" style="fill:#616bdd"/>
 <path d="m3 2c-0.554 0-1 0.446-1 1v0.5c0-0.554 0.446-1 1-1h18c0.554 0 1 0.446 1 1v-0.5c0-0.554-0.446-1-1-1h-18z" style="fill:#ffffff;opacity:.1"/>
 <rect x="5" y="5.5" width="4" height="4" rx=".5" ry=".5" style="fill:#ffffff;opacity:.1"/>
 <rect x="10" y="5.5" width="4" height="4" rx=".5" ry=".5" style="fill:#ffffff;opacity:.1"/>
 <rect x="15" y="5.5" width="4" height="4" rx=".5" ry=".5" style="fill:#ffffff;opacity:.1"/>
 <rect x="10" y="10.5" width="4" height="4" rx=".5" ry=".5" style="fill:#ffffff;opacity:.1"/>
 <rect x="10" y="15.5" width="4" height="4" rx=".5" ry=".5" style="fill:#ffffff;opacity:.1"/>
 <rect x="5" y="5" width="4" height="4" rx=".5" ry=".5" style="fill:#30356e"/>
 <rect x="10" y="5" width="4" height="4" rx=".5" ry=".5" style="fill:#30356e"/>
 <rect x="15" y="5" width="4" height="4" rx=".5" ry=".5" style="fill:#30356e"/>
 <rect x="10" y="10" width="4" height="4" rx=".5" ry=".5" style="fill:#30356e"/>
 <rect x="10" y="15" width="4" height="4" rx=".5" ry=".5" style="fill:#30356e"/>
</svg>

<svg xmlns="http://www.w3.org/2000/svg" width="24" height="24" version="1">
 <rect style="opacity:0.2" width="20" height="20" x="2" y="2.5" rx="1" ry="1"/>
 <rect style="fill:#616bdd" width="20" height="20" x="2" y="2" rx="1" ry="1"/>
 <path style="fill:#ffffff;opacity:0.1" d="M 3 2 C 2.446 2 2 2.446 2 3 L 2 3.5 C 2 2.946 2.446 2.5 3 2.5 L 21 2.5 C 21.554 2.5 22 2.946 22 3.5 L 22 3 C 22 2.446 21.554 2 21 2 L 3 2 z"/>
 <rect style="opacity:0.1;fill:#ffffff" width="4" height="4" x="5" y="5.5" rx=".5" ry=".5"/>
 <rect style="opacity:0.1;fill:#ffffff" width="4" height="4" x="10" y="5.5" rx=".5" ry=".5"/>
 <rect style="opacity:0.1;fill:#ffffff" width="4" height="4" x="15" y="5.5" rx=".5" ry=".5"/>
 <rect style="opacity:0.1;fill:#ffffff" width="4" height="4" x="10" y="10.5" rx=".5" ry=".5"/>
 <rect style="opacity:0.1;fill:#ffffff" width="4" height="4" x="10" y="15.5" rx=".5" ry=".5"/>
 <rect style="fill:#30356e" width="4" height="4" x="5" y="5" rx=".5" ry=".5"/>
 <rect style="fill:#30356e" width="4" height="4" x="10" y="5" rx=".5" ry=".5"/>
 <rect style="fill:#30356e" width="4" height="4" x="15" y="5" rx=".5" ry=".5"/>
 <rect style="fill:#30356e" width="4" height="4" x="10" y="10" rx=".5" ry=".5"/>
 <rect style="fill:#30356e" width="4" height="4" x="10" y="15" rx=".5" ry=".5"/>
</svg>
